src/icons/solid/ai/quality-monitoring.svg

<svg width="24" height="24" viewBox="0 0 24 24" fill="none" xmlns="http://www.w3.org/2000/svg">
<g clip-path="url(#clip0_6362_1058)">
<path fill-rule="evenodd" clip-rule="evenodd" d="M20.6699 2.57031C21.9599 2.57031 23 3.62686 23 4.91504V20.665C22.9999 21.9632 21.9599 23 20.6699 23H5.05957C3.77981 22.9998 2.73055 21.9631 2.73047 20.665V7.96387C2.81042 8.10467 2.92966 8.23602 3.05957 8.34668C3.36956 8.60833 3.77994 8.74901 4.16992 8.74902C4.55981 8.74902 4.95957 8.6082 5.26953 8.34668C5.57953 8.08502 5.79988 7.72257 5.87988 7.33008C6.00993 6.6458 6.54047 6.1025 7.19043 5.97168C7.58026 5.8911 7.93052 5.67935 8.19043 5.35742C8.38018 5.13616 8.49981 4.87459 8.5498 4.58301C8.6198 4.44211 8.65039 4.28084 8.65039 4.12988C8.65039 4.0192 8.65035 3.92816 8.61035 3.84766C8.58031 3.70689 8.50984 3.56597 8.41992 3.44531C8.40998 3.43519 8.39977 3.41528 8.37988 3.40527C8.32997 3.29478 8.27004 3.20442 8.2002 3.12402C7.99029 2.87255 7.72019 2.671 7.40039 2.57031H20.6699ZM7.33984 15.6934C7.18997 15.6934 7.1299 15.7437 7.12988 15.8945V18.2793C7.12988 18.4403 7.18994 18.4912 7.33984 18.4912H8.17969C8.33969 18.4912 8.38965 18.4403 8.38965 18.2793V15.8945C8.38963 15.7436 8.33966 15.6934 8.17969 15.6934H7.33984ZM12.4102 12.2217C12.3103 12.2217 12.2501 12.2312 12.2002 12.2412V18.4609C12.2402 18.481 12.3103 18.4912 12.4102 18.4912H13.25C13.3491 18.4912 13.4579 18.4615 13.46 18.4609V12.2412C13.42 12.2312 13.3499 12.2217 13.25 12.2217H12.4102ZM17.46 7.21973C17.4099 7.2401 17.2598 7.49161 17.2598 8.01465V17.7061C17.2598 18.2193 17.41 18.4711 17.46 18.4912H18.3096C18.3696 18.4711 18.5195 18.2193 18.5195 17.7061V8.01465C18.5195 7.49133 18.3696 7.23985 18.3096 7.21973H17.46Z" fill="#3C3B44"/>
<path d="M4.16992 1C4.28992 1 4.39047 1.0399 4.48047 1.11035C4.57037 1.18077 4.63038 1.28169 4.65039 1.40234C4.89039 2.58988 5.80043 3.51628 6.94043 3.75781C7.05024 3.77803 7.15058 3.83827 7.23047 3.92871C7.30024 4.00912 7.33977 4.11975 7.33984 4.24023C7.33984 4.35083 7.30034 4.46194 7.23047 4.5625C7.16055 4.64292 7.06024 4.70343 6.94043 4.72363C5.81059 4.96513 4.89055 5.89084 4.65039 7.07812C4.63042 7.18866 4.57024 7.28967 4.48047 7.37012C4.40047 7.44056 4.28992 7.48145 4.16992 7.48145C4.04996 7.48143 3.94959 7.44055 3.84961 7.37012C3.7698 7.29969 3.70964 7.1987 3.67969 7.07812C3.45952 5.89083 2.52949 4.96513 1.38965 4.72363C1.2798 4.70344 1.18952 4.64293 1.09961 4.5625C1.02975 4.47197 1 4.36089 1 4.24023C1.00006 4.1198 1.02991 4.01934 1.09961 3.91895C1.17952 3.83852 1.26984 3.77801 1.38965 3.75781C2.51965 3.51628 3.44969 2.58988 3.67969 1.40234C3.7097 1.2917 3.76965 1.19083 3.84961 1.11035C3.93959 1.03992 4.04995 1.00002 4.16992 1Z" fill="#3C3B44"/>
</g>
<defs>
<clipPath id="clip0_6362_1058">
<rect width="24" height="24" fill="white"/>
</clipPath>
</defs>
</svg>

<svg xmlns="http://www.w3.org/2000/svg" width="24" height="24" fill="none" viewBox="0 0 24 24"><g fill="currentColor" clip-path="url(#a)"><path fill-rule="evenodd" d="M20.67 2.57A2.34 2.34 0 0 1 23 4.915v15.75A2.325 2.325 0 0 1 20.67 23H5.06a2.33 2.33 0 0 1-2.33-2.335V7.964c.08.14.2.272.33.383.31.261.72.402 1.11.402s.79-.14 1.1-.402.53-.624.61-1.017c.13-.684.66-1.227 1.31-1.358.39-.08.74-.293 1-.615.19-.22.31-.482.36-.774.07-.14.1-.302.1-.453 0-.11 0-.202-.04-.282-.03-.141-.1-.282-.19-.403-.01-.01-.02-.03-.04-.04-.05-.11-.11-.2-.18-.281a1.73 1.73 0 0 0-.8-.554zM7.34 15.693c-.15 0-.21.05-.21.202v2.384c0 .161.06.212.21.212h.84c.16 0 .21-.05.21-.212v-2.384c0-.151-.05-.202-.21-.202zm5.07-3.471c-.1 0-.16.01-.21.02v6.219q.06.03.21.03h.84c.1 0 .208-.03.21-.03v-6.22a1 1 0 0 0-.21-.02zm5.05-5.002c-.05.02-.2.272-.2.795v9.691c0 .513.15.765.2.785h.85c.06-.02.21-.272.21-.785V8.015c0-.524-.15-.775-.21-.795z" clip-rule="evenodd"/><path d="M4.17 1a.49.49 0 0 1 .48.402C4.89 2.59 5.8 3.516 6.94 3.758c.11.02.21.08.29.17.07.081.11.192.11.312 0 .11-.04.222-.11.322a.5.5 0 0 1-.29.162c-1.13.241-2.05 1.167-2.29 2.354a.52.52 0 0 1-.17.292.47.47 0 0 1-.31.111c-.12 0-.22-.04-.32-.11a.57.57 0 0 1-.17-.293 2.97 2.97 0 0 0-2.29-2.354.6.6 0 0 1-.29-.162.5.5 0 0 1-.1-.322c0-.12.03-.22.1-.321.08-.08.17-.141.29-.161a3 3 0 0 0 2.29-2.356.7.7 0 0 1 .17-.292c.09-.07.2-.11.32-.11"/></g><defs><clipPath id="a"><path fill="currentColor" d="M0 0h24v24H0z"/></clipPath></defs></svg>
